assets/1. F-P/Ng button/Color/Ng.Button-color.svg

<svg width="100%" height="100%" viewBox="0 0 32 32" fill="none" xmlns="http://www.w3.org/2000/svg">
<g filter="url(#filter0_ii_18590_2422)">
<rect x="1.93433" y="1.6875" width="27.875" height="27.875" rx="3.6" fill="url(#paint0_linear_18590_2422)"/>
<rect x="1.93433" y="1.6875" width="27.875" height="27.875" rx="3.6" fill="url(#paint1_radial_18590_2422)"/>
</g>
<g filter="url(#filter1_f_18590_2422)">
<path d="M28.1218 4.1875V27.0625" stroke="url(#paint2_linear_18590_2422)" stroke-width="1.5" stroke-linecap="round"/>
</g>
<g filter="url(#filter2_f_18590_2422)">
<path d="M5.39819 3.5H27.1794" stroke="url(#paint3_linear_18590_2422)" stroke-width="1.5" stroke-linecap="round"/>
</g>
<g filter="url(#filter3_f_18590_2422)">
<path d="M8.44266 9.39032C8.13682 8.84456 7.50112 8.57406 6.8958 8.7321C6.29049 8.89015 5.86816 9.4369 5.86816 10.0625V21.1875C5.86816 21.9469 6.48377 22.5625 7.24316 22.5625C8.00256 22.5625 8.61816 21.9469 8.61816 21.1875V15.8075C8.61816 15.6788 8.78927 15.6341 8.85221 15.7464L12.278 21.8597C12.5839 22.4055 13.2196 22.676 13.8249 22.5179C14.4302 22.3599 14.8525 21.8131 14.8525 21.1875V10.0625C14.8525 9.30311 14.2369 8.6875 13.4775 8.6875C12.7181 8.6875 12.1025 9.30311 12.1025 10.0625V15.4425C12.1025 15.5712 11.9314 15.6159 11.8685 15.5036L8.44266 9.39032Z" fill="#579FFF"/>
<path d="M21.2629 8.6875C18.5251 8.6875 16.3057 10.9069 16.3057 13.6447V17.5894C16.3057 20.336 18.5322 22.5625 21.2787 22.5625H21.8256C23.2923 22.5625 24.6439 21.7681 25.3574 20.4868C25.6924 19.8854 25.8682 19.2084 25.8682 18.52V16.2656C25.8682 15.5062 25.2526 14.8906 24.4932 14.8906H22.1864C21.4271 14.8906 20.8114 15.5062 20.8114 16.2656C20.8114 17.025 21.4271 17.6406 22.1864 17.6406H22.9932C23.0622 17.6406 23.1182 17.6966 23.1182 17.7656V18.52C23.1182 18.7401 23.062 18.9565 22.9549 19.1488C22.7267 19.5585 22.2946 19.8125 21.8256 19.8125H21.2787C20.051 19.8125 19.0557 18.8172 19.0557 17.5894V13.6447C19.0557 12.4257 20.0439 11.4375 21.2629 11.4375C22.0719 11.4375 22.8161 11.8801 23.2023 12.591L23.285 12.7431C23.6475 13.4104 24.4823 13.6575 25.1496 13.2949C25.8169 12.9324 26.0639 12.0976 25.7014 11.4303L25.6187 11.2782C24.7513 9.68157 23.0799 8.6875 21.2629 8.6875Z" fill="#579FFF"/>
</g>
<g filter="url(#filter4_ii_18590_2422)">
<path d="M8.44266 9.39032C8.13682 8.84456 7.50112 8.57406 6.8958 8.7321C6.29049 8.89015 5.86816 9.4369 5.86816 10.0625V21.1875C5.86816 21.9469 6.48377 22.5625 7.24316 22.5625C8.00256 22.5625 8.61816 21.9469 8.61816 21.1875V15.8075C8.61816 15.6788 8.78927 15.6341 8.85221 15.7464L12.278 21.8597C12.5839 22.4055 13.2196 22.676 13.8249 22.5179C14.4302 22.3599 14.8525 21.8131 14.8525 21.1875V10.0625C14.8525 9.30311 14.2369 8.6875 13.4775 8.6875C12.7181 8.6875 12.1025 9.30311 12.1025 10.0625V15.4425C12.1025 15.5712 11.9314 15.6159 11.8685 15.5036L8.44266 9.39032Z" fill="#FCF2FF"/>
<path d="M21.2629 8.6875C18.5251 8.6875 16.3057 10.9069 16.3057 13.6447V17.5894C16.3057 20.336 18.5322 22.5625 21.2787 22.5625H21.8256C23.2923 22.5625 24.6439 21.7681 25.3574 20.4868C25.6924 19.8854 25.8682 19.2084 25.8682 18.52V16.2656C25.8682 15.5062 25.2526 14.8906 24.4932 14.8906H22.1864C21.4271 14.8906 20.8114 15.5062 20.8114 16.2656C20.8114 17.025 21.4271 17.6406 22.1864 17.6406H22.9932C23.0622 17.6406 23.1182 17.6966 23.1182 17.7656V18.52C23.1182 18.7401 23.062 18.9565 22.9549 19.1488C22.7267 19.5585 22.2946 19.8125 21.8256 19.8125H21.2787C20.051 19.8125 19.0557 18.8172 19.0557 17.5894V13.6447C19.0557 12.4257 20.0439 11.4375 21.2629 11.4375C22.0719 11.4375 22.8161 11.8801 23.2023 12.591L23.285 12.7431C23.6475 13.4104 24.4823 13.6575 25.1496 13.2949C25.8169 12.9324 26.0639 12.0976 25.7014 11.4303L25.6187 11.2782C24.7513 9.68157 23.0799 8.6875 21.2629 8.6875Z" fill="#FCF2FF"/>
</g>
<defs>
<filter id="filter0_ii_18590_2422" x="1.93433" y="0.6875" width="28.875" height="28.875" filterUnits="userSpaceOnUse" color-interpolation-filters="sRGB">
<feFlood flood-opacity="0" result="BackgroundImageFix"/>
<feBlend mode="normal" in="SourceGraphic" in2="BackgroundImageFix" result="shape"/>
<feColorMatrix in="SourceAlpha" type="matrix" values="0 0 0 0 0 0 0 0 0 0 0 0 0 0 0 0 0 0 127 0" result="hardAlpha"/>
<feOffset dx="1" dy="-1"/>
<feGaussianBlur stdDeviation="1.5"/>
<feComposite in2="hardAlpha" operator="arithmetic" k2="-1" k3="1"/>
<feColorMatrix type="matrix" values="0 0 0 0 0.188235 0 0 0 0 0.470588 0 0 0 0 0.843137 0 0 0 1 0"/>
<feBlend mode="normal" in2="shape" result="effect1_innerShadow_18590_2422"/>
<feColorMatrix in="SourceAlpha" type="matrix" values="0 0 0 0 0 0 0 0 0 0 0 0 0 0 0 0 0 0 127 0" result="hardAlpha"/>
<feOffset dy="-1"/>
<feGaussianBlur stdDeviation="1.5"/>
<feComposite in2="hardAlpha" operator="arithmetic" k2="-1" k3="1"/>
<feColorMatrix type="matrix" values="0 0 0 0 0.27451 0 0 0 0 0.34902 0 0 0 0 0.8 0 0 0 1 0"/>
<feBlend mode="normal" in2="effect1_innerShadow_18590_2422" result="effect2_innerShadow_18590_2422"/>
</filter>
<filter id="filter1_f_18590_2422" x="25.3718" y="1.4375" width="5.5" height="28.375" filterUnits="userSpaceOnUse" color-interpolation-filters="sRGB">
<feFlood flood-opacity="0" result="BackgroundImageFix"/>
<feBlend mode="normal" in="SourceGraphic" in2="BackgroundImageFix" result="shape"/>
<feGaussianBlur stdDeviation="1" result="effect1_foregroundBlur_18590_2422"/>
</filter>
<filter id="filter2_f_18590_2422" x="2.64819" y="0.75" width="27.2812" height="5.5" filterUnits="userSpaceOnUse" color-interpolation-filters="sRGB">
<feFlood flood-opacity="0" result="BackgroundImageFix"/>
<feBlend mode="normal" in="SourceGraphic" in2="BackgroundImageFix" result="shape"/>
<feGaussianBlur stdDeviation="1" result="effect1_foregroundBlur_18590_2422"/>
</filter>
<filter id="filter3_f_18590_2422" x="4.86816" y="7.68738" width="22.0002" height="15.8752" filterUnits="userSpaceOnUse" color-interpolation-filters="sRGB">
<feFlood flood-opacity="0" result="BackgroundImageFix"/>
<feBlend mode="normal" in="SourceGraphic" in2="BackgroundImageFix" result="shape"/>
<feGaussianBlur stdDeviation="0.5" result="effect1_foregroundBlur_18590_2422"/>
</filter>
<filter id="filter4_ii_18590_2422" x="4.86816" y="8.28738" width="21.4002" height="15.2752" filterUnits="userSpaceOnUse" color-interpolation-filters="sRGB">
<feFlood flood-opacity="0" result="BackgroundImageFix"/>
<feBlend mode="normal" in="SourceGraphic" in2="BackgroundImageFix" result="shape"/>
<feColorMatrix in="SourceAlpha" type="matrix" values="0 0 0 0 0 0 0 0 0 0 0 0 0 0 0 0 0 0 127 0" result="hardAlpha"/>
<feOffset dx="-1" dy="1"/>
<feGaussianBlur stdDeviation="1"/>
<feComposite in2="hardAlpha" operator="arithmetic" k2="-1" k3="1"/>
<feColorMatrix type="matrix" values="0 0 0 0 0.866667 0 0 0 0 0.819608 0 0 0 0 0.941176 0 0 0 1 0"/>
<feBlend mode="normal" in2="shape" result="effect1_innerShadow_18590_2422"/>
<feColorMatrix in="SourceAlpha" type="matrix" values="0 0 0 0 0 0 0 0 0 0 0 0 0 0 0 0 0 0 127 0" result="hardAlpha"/>
<feOffset dx="0.4" dy="-0.4"/>
<feGaussianBlur stdDeviation="0.5"/>
<feComposite in2="hardAlpha" operator="arithmetic" k2="-1" k3="1"/>
<feColorMatrix type="matrix" values="0 0 0 0 1 0 0 0 0 0.988235 0 0 0 0 1 0 0 0 1 0"/>
<feBlend mode="normal" in2="effect1_innerShadow_18590_2422" result="effect2_innerShadow_18590_2422"/>
</filter>
<linearGradient id="paint0_linear_18590_2422" x1="15.8718" y1="5.26201" x2="15.8718" y2="38.5147" gradientUnits="userSpaceOnUse">
<stop stop-color="#5CB7FF"/>
<stop offset="1" stop-color="#4878DD"/>
</linearGradient>
<radialGradient id="paint1_radial_18590_2422" cx="0" cy="0" r="1" gradientUnits="userSpaceOnUse" gradientTransform="translate(27.5906 3.78125) rotate(136.771) scale(2.14444 2.50466)">
<stop stop-color="#7BD7FF"/>
<stop offset="1" stop-color="#7BD7FF" stop-opacity="0"/>
</radialGradient>
<linearGradient id="paint2_linear_18590_2422" x1="28.6218" y1="4.1875" x2="28.6218" y2="27.0625" gradientUnits="userSpaceOnUse">
<stop stop-color="#7FD9FF"/>
<stop offset="1" stop-color="#639DF4"/>
</linearGradient>
<linearGradient id="paint3_linear_18590_2422" x1="28.3357" y1="3.75002" x2="2.80444" y2="3.75002" gradientUnits="userSpaceOnUse">
<stop stop-color="#7DD8FF"/>
<stop offset="1" stop-color="#5DB6FF"/>
</linearGradient>
</defs>
</svg>

<svg width="100%" height="100%" viewBox="0 0 32 32" xmlns="http://www.w3.org/2000/svg"><g filter="url(#a)"><rect width="27.875" height="27.875" x="1.934" y="1.688" fill="url(#b)" rx="3.6"/><rect width="27.875" height="27.875" x="1.934" y="1.688" fill="url(#c)" rx="3.6"/></g><g filter="url(#d)"><path stroke="url(#e)" stroke-linecap="round" stroke-width="1.5" d="M28.122 4.188v22.875"/></g><g filter="url(#f)"><path stroke="url(#g)" stroke-linecap="round" stroke-width="1.5" d="M5.398 3.5H27.18"/></g><g fill="#579FFF" filter="url(#h)"><path d="M8.443 9.39a1.375 1.375 0 0 0-2.575.672v11.126a1.375 1.375 0 1 0 2.75 0v-5.38c0-.13.171-.174.234-.062l3.426 6.114a1.375 1.375 0 0 0 2.574-.672V10.063a1.375 1.375 0 1 0-2.75 0v5.38c0 .128-.17.173-.234.06zM21.263 8.688a4.957 4.957 0 0 0-4.957 4.957v3.944a4.973 4.973 0 0 0 4.973 4.974h.547a4.04 4.04 0 0 0 4.042-4.043v-2.254c0-.76-.615-1.375-1.375-1.375h-2.307a1.375 1.375 0 0 0 0 2.75h.807c.07 0 .125.056.125.125v.754a1.29 1.29 0 0 1-1.292 1.293h-.547a2.223 2.223 0 0 1-2.223-2.224v-3.944a2.207 2.207 0 0 1 4.146-1.054l.083.152a1.375 1.375 0 1 0 2.416-1.313l-.082-.152a4.96 4.96 0 0 0-4.356-2.59"/></g><g fill="#FCF2FF" filter="url(#i)"><path d="M8.443 9.39a1.375 1.375 0 0 0-2.575.672v11.126a1.375 1.375 0 1 0 2.75 0v-5.38c0-.13.171-.174.234-.062l3.426 6.114a1.375 1.375 0 0 0 2.574-.672V10.063a1.375 1.375 0 1 0-2.75 0v5.38c0 .128-.17.173-.234.06zM21.263 8.688a4.957 4.957 0 0 0-4.957 4.957v3.944a4.973 4.973 0 0 0 4.973 4.974h.547a4.04 4.04 0 0 0 4.042-4.043v-2.254c0-.76-.615-1.375-1.375-1.375h-2.307a1.375 1.375 0 0 0 0 2.75h.807c.07 0 .125.056.125.125v.754a1.29 1.29 0 0 1-1.292 1.293h-.547a2.223 2.223 0 0 1-2.223-2.224v-3.944a2.207 2.207 0 0 1 4.146-1.054l.083.152a1.375 1.375 0 1 0 2.416-1.313l-.082-.152a4.96 4.96 0 0 0-4.356-2.59"/></g><defs><filter id="a" width="28.875" height="28.875" x="1.934" y=".688" color-interpolation-filters="sRGB" filterUnits="userSpaceOnUse"><feFlood flood-opacity="0" result="BackgroundImageFix"/><feBlend in="SourceGraphic" in2="BackgroundImageFix" result="shape"/><feColorMatrix in="SourceAlpha" result="hardAlpha" values="0 0 0 0 0 0 0 0 0 0 0 0 0 0 0 0 0 0 127 0"/><feOffset dx="1" dy="-1"/><feGaussianBlur stdDeviation="1.5"/><feComposite in2="hardAlpha" k2="-1" k3="1" operator="arithmetic"/><feColorMatrix values="0 0 0 0 0.188235 0 0 0 0 0.470588 0 0 0 0 0.843137 0 0 0 1 0"/><feBlend in2="shape" result="effect1_innerShadow_18590_2422"/><feColorMatrix in="SourceAlpha" result="hardAlpha" values="0 0 0 0 0 0 0 0 0 0 0 0 0 0 0 0 0 0 127 0"/><feOffset dy="-1"/><feGaussianBlur stdDeviation="1.5"/><feComposite in2="hardAlpha" k2="-1" k3="1" operator="arithmetic"/><feColorMatrix values="0 0 0 0 0.27451 0 0 0 0 0.34902 0 0 0 0 0.8 0 0 0 1 0"/><feBlend in2="effect1_innerShadow_18590_2422" result="effect2_innerShadow_18590_2422"/></filter><filter id="d" width="5.5" height="28.375" x="25.372" y="1.438" color-interpolation-filters="sRGB" filterUnits="userSpaceOnUse"><feFlood flood-opacity="0" result="BackgroundImageFix"/><feBlend in="SourceGraphic" in2="BackgroundImageFix" result="shape"/><feGaussianBlur result="effect1_foregroundBlur_18590_2422" stdDeviation="1"/></filter><filter id="f" width="27.281" height="5.5" x="2.648" y=".75" color-interpolation-filters="sRGB" filterUnits="userSpaceOnUse"><feFlood flood-opacity="0" result="BackgroundImageFix"/><feBlend in="SourceGraphic" in2="BackgroundImageFix" result="shape"/><feGaussianBlur result="effect1_foregroundBlur_18590_2422" stdDeviation="1"/></filter><filter id="h" width="22" height="15.875" x="4.868" y="7.687" color-interpolation-filters="sRGB" filterUnits="userSpaceOnUse"><feFlood flood-opacity="0" result="BackgroundImageFix"/><feBlend in="SourceGraphic" in2="BackgroundImageFix" result="shape"/><feGaussianBlur result="effect1_foregroundBlur_18590_2422" stdDeviation=".5"/></filter><filter id="i" width="21.4" height="15.275" x="4.868" y="8.287" color-interpolation-filters="sRGB" filterUnits="userSpaceOnUse"><feFlood flood-opacity="0" result="BackgroundImageFix"/><feBlend in="SourceGraphic" in2="BackgroundImageFix" result="shape"/><feColorMatrix in="SourceAlpha" result="hardAlpha" values="0 0 0 0 0 0 0 0 0 0 0 0 0 0 0 0 0 0 127 0"/><feOffset dx="-1" dy="1"/><feGaussianBlur stdDeviation="1"/><feComposite in2="hardAlpha" k2="-1" k3="1" operator="arithmetic"/><feColorMatrix values="0 0 0 0 0.866667 0 0 0 0 0.819608 0 0 0 0 0.941176 0 0 0 1 0"/><feBlend in2="shape" result="effect1_innerShadow_18590_2422"/><feColorMatrix in="SourceAlpha" result="hardAlpha" values="0 0 0 0 0 0 0 0 0 0 0 0 0 0 0 0 0 0 127 0"/><feOffset dx=".4" dy="-.4"/><feGaussianBlur stdDeviation=".5"/><feComposite in2="hardAlpha" k2="-1" k3="1" operator="arithmetic"/><feColorMatrix values="0 0 0 0 1 0 0 0 0 0.988235 0 0 0 0 1 0 0 0 1 0"/><feBlend in2="effect1_innerShadow_18590_2422" result="effect2_innerShadow_18590_2422"/></filter><linearGradient id="b" x1="15.872" x2="15.872" y1="5.262" y2="38.515" gradientUnits="userSpaceOnUse"><stop stop-color="#5CB7FF"/><stop offset="1" stop-color="#4878DD"/></linearGradient><linearGradient id="e" x1="28.622" x2="28.622" y1="4.188" y2="27.063" gradientUnits="userSpaceOnUse"><stop stop-color="#7FD9FF"/><stop offset="1" stop-color="#639DF4"/></linearGradient><linearGradient id="g" x1="28.336" x2="2.804" y1="3.75" y2="3.75" gradientUnits="userSpaceOnUse"><stop stop-color="#7DD8FF"/><stop offset="1" stop-color="#5DB6FF"/></linearGradient><radialGradient id="c" cx="0" cy="0" r="1" gradientTransform="matrix(-1.56249 1.46876 -1.71548 -1.82495 27.59 3.781)" gradientUnits="userSpaceOnUse"><stop stop-color="#7BD7FF"/><stop offset="1" stop-color="#7BD7FF" stop-opacity="0"/></radialGradient></defs></svg>
